X:1
T:Title
%%score { ( 1 3 ) | 2 }
L:1/8
M:4/4
K:Eb
V:1 treble nm="Grand Piano"
V:3 treble 
V:2 bass 
V:1
 z4 z2[Q:1/4=100] [DB][FA] | G2 GG G2 GG | G2 [GB]2 [Ac][GB][FA][EG] | %3
 [DF]2 [DF][DF] [DF]2 [DF][EG] | [FA]2 [FA][FA] [GB][FA][EG][FA] | [GB]2 [GB][GB] [GB]2 [EG][GB] | %6
 c2 cc [Ac][GB][GB][EG] | [DF]2 [DF][DF] [DF]2 [DF][EG] |[M:3/4] [FA]2 [FA][FA] [GB][FA] | %9
[M:1/4] [EG][DF] |[M:4/4] E6 z2 | F6 z2 | [DB]3 [DB] [DG]2 [DF]2 | [B,E]6 z2 |] %14
V:2
 z4 z2 [B,,F,][B,,B,] | [E,B,E]2 [E,B,E][E,B,E] [E,B,E]2 [E,B,E][E,B,E] | %2
 [E,B,E]2 [E,E]2 [E,E][E,E][E,B,][E,B,] | [B,,B,]2 [B,,B,][B,,B,] [B,,B,]2 [B,,B,][B,,B,] | %4
 [B,,B,]2 [B,,B,][B,,B,] [B,,B,][B,,B,][B,,B,][B,,B,] | [E,B,]2 [E,E][E,E] [E,E]2 [E,B,][E,E] | %6
 [A,EA]2 [A,EA][A,EA][K:bass] [E,E][E,E][E,E][E,B,] | %7
 [B,,B,]2 [B,,B,][B,,B,] [B,,B,]2 [B,,B,][B,,B,] |[M:3/4] [B,,B,]2 [B,,B,][B,,B,] [B,,B,][B,,B,] | %9
[M:1/4] [B,,B,][B,,A,] |[M:4/4] [E,G,B,]2 [E,G,][E,G,] [E,G,]2 [E,G,E][E,B,E] | %11
 [B,,B,]2 [B,,B,][B,,B,] [B,,B,]2 A,,[A,,A,] | [B,,F,]3 [B,,F,] [B,,B,]2 [B,,A,]2 | [E,G,]6 z2 |] %14
V:3
 x8 | x8 | x8 | x8 | x8 | x8 | x8 | x8 |[M:3/4] x6 |[M:1/4] x2 |[M:4/4] z2 B,B, B,2 BG | %11
 D2 DD D2 [CEA][Ec] | x8 | x8 |] %14

